vendor/shopware/storefront/Resources/app/storefront/dist/assets/icon/solid/arrow-large-down.svg

<svg xmlns="http://www.w3.org/2000/svg" xmlns:xlink="http://www.w3.org/1999/xlink" width="16" height="16" viewBox="0 0 16 16">
  <defs>
    <path id="icons-small-arrow-large-down-a" d="M2.70710678,5.29289322 C2.31658249,4.90236893 1.68341751,4.90236893 1.29289322,5.29289322 C0.902368927,5.68341751 0.902368927,6.31658249 1.29289322,6.70710678 L7.29289322,12.7071068 C7.68341751,13.0976311 8.31658249,13.0976311 8.70710678,12.7071068 L14.7071068,6.70710678 C15.0976311,6.31658249 15.0976311,5.68341751 14.7071068,5.29289322 C14.3165825,4.90236893 13.6834175,4.90236893 13.2928932,5.29289322 L8,10.5857864 L2.70710678,5.29289322 Z"/>
  </defs>
  <use fill="#758CA3" fill-rule="evenodd" xlink:href="#icons-small-arrow-large-down-a"/>
</svg>

<svg xmlns="http://www.w3.org/2000/svg" xmlns:xlink="http://www.w3.org/1999/xlink" width="16" height="16" viewBox="0 0 16 16"><defs><path id="icons-small-arrow-large-down-a" d="M2.7071 5.2929c-.3905-.3905-1.0237-.3905-1.4142 0-.3905.3905-.3905 1.0237 0 1.4142l6 6c.3905.3905 1.0237.3905 1.4142 0l6-6c.3905-.3905.3905-1.0237 0-1.4142-.3905-.3905-1.0237-.3905-1.4142 0L8 10.5858l-5.2929-5.293z"/></defs><use fill="#758CA3" fill-rule="evenodd" xlink:href="#icons-small-arrow-large-down-a"/></svg>
